src/icons/trigger-artifact.svg

<svg enable-background="new 0 0 32 32" viewBox="0 0 32 32" xmlns="http://www.w3.org/2000/svg"><g><circle cx="16" cy="16" fill="#d4ecfc" r="16"/><g fill="#1a57ad"><path d="m10.8 3.6-3.6-3.4c-.2-.1-.3-.2-.5-.2-.3 0-.6.3-.6.6 0 .2.1.3.2.4l2.6 2.5h-8.3c-.3-.1-.6.2-.6.5s.3.6.6.6h8.3l-2.6 2.4c-.1.1-.2.3-.2.4 0 .3.3.6.6.6.2 0 .3-.1.5-.2l3.7-3.4c0-.1.1-.2.1-.4s-.1-.3-.2-.4z" transform="translate(16 12)"/><path d="m10.9 7v2.7h-1v-2.1h-3.3v2.2h-1.2v-2.2h-3.2v2.2h-1.2v-2.8c0-.3.2-.5.6-.5h3.8v-2.2h1.1v2.2h3.8c.4 0 .6.2.6.5zm-9.9 3.3h1.1c.3 0 .5.2.5.5v1.2c0 .3-.2.5-.5.5h-1.1c-.3 0-.5-.2-.5-.5v-1.1c0-.3.2-.6.5-.6zm8.9 0h1.1c.3 0 .6.2.6.5v1.2c0 .3-.2.5-.6.5h-1.1c-.3 0-.6-.2-.6-.5v-1.1c0-.3.2-.6.6-.6zm-4.5 0h1.1c.3 0 .5.2.5.5v1.2c0 .3-.2.5-.5.5h-1.1c-.3 0-.5-.2-.5-.5v-1.1c0-.3.2-.6.5-.6zm-.2-9.8h1.6c.5 0 .8.4.8.8v1.7c0 .5-.4.8-.8.8h-1.6c-.5 0-.9-.4-.9-.8v-1.7c0-.4.4-.8.9-.8z" transform="matrix(0 1 -1 0 20 10)"/></g></g></svg>

<?xml version="1.0" encoding="utf-8"?>
<!-- Generator: Adobe Illustrator 20.1.0, SVG Export Plug-In . SVG Version: 6.00 Build 0)  -->
<svg version="1.1" id="Layer_1" xmlns="http://www.w3.org/2000/svg" xmlns:xlink="http://www.w3.org/1999/xlink" x="0px" y="0px"
	 viewBox="0 0 32 32" style="enable-background:new 0 0 32 32;" xml:space="preserve">
<style type="text/css">
	.st0{fill:#D4ECFC;}
	.st1{fill:#1A57AD;}
</style>
<title>HDL/Icon/Standard/Trigger/triggerartifact</title>
<desc>Created with Sketch.</desc>
<g id="Colors">
	<g id="Trigger-Icons" transform="translate(-100.000000, -195.000000)">
		<g id="HDL_x2F_Icon_x2F_Standard_x2F_Trigger_x2F_triggerpipeline" transform="translate(100.000000, 195.000000)">
			<g id="TriggerArtifact">
				<g id="Group-Copy">
					<circle id="Oval" class="st0" cx="16" cy="16" r="16"/>
				</g>
				<g id="arrow-right" transform="translate(16.000000, 12.000000)">
					<path id="Path" class="st1" d="M10.8,3.6L7.2,0.2C7,0.1,6.9,0,6.7,0C6.4,0,6.1,0.3,6.1,0.6c0,0.2,0.1,0.3,0.2,0.4l2.6,2.5H0.6
						C0.3,3.4,0,3.7,0,4s0.3,0.6,0.6,0.6h8.3L6.3,7C6.2,7.1,6.1,7.3,6.1,7.4C6.1,7.7,6.4,8,6.7,8C6.9,8,7,7.9,7.2,7.8l3.7-3.4
						C10.9,4.3,11,4.2,11,4C11,3.8,10.9,3.7,10.8,3.6z"/>
				</g>
				
					<g id="diagram-tree" transform="translate(13.500000, 16.000000) rotate(90.000000) translate(-13.500000, -16.000000) translate(7.500000, 9.500000)">
					<path id="Organization" class="st1" d="M10.9,7v2.7H9.9V7.6H6.6v2.2H5.4V7.6H2.2v2.2H1V7c0-0.3,0.2-0.5,0.6-0.5h3.8V4.3h1.1
						v2.2h3.8C10.7,6.5,10.9,6.7,10.9,7z M1,10.3h1.1c0.3,0,0.5,0.2,0.5,0.5V12c0,0.3-0.2,0.5-0.5,0.5H1c-0.3,0-0.5-0.2-0.5-0.5
						v-1.1C0.5,10.6,0.7,10.3,1,10.3z M9.9,10.3h1.1c0.3,0,0.6,0.2,0.6,0.5V12c0,0.3-0.2,0.5-0.6,0.5H9.9c-0.3,0-0.6-0.2-0.6-0.5
						v-1.1C9.3,10.6,9.5,10.3,9.9,10.3z M5.4,10.3h1.1c0.3,0,0.5,0.2,0.5,0.5V12c0,0.3-0.2,0.5-0.5,0.5H5.4c-0.3,0-0.5-0.2-0.5-0.5
						v-1.1C4.9,10.6,5.1,10.3,5.4,10.3z M5.2,0.5h1.6c0.5,0,0.8,0.4,0.8,0.8V3c0,0.5-0.4,0.8-0.8,0.8H5.2C4.7,3.8,4.3,3.4,4.3,3V1.3
						C4.3,0.9,4.7,0.5,5.2,0.5z"/>
				</g>
			</g>
		</g>
	</g>
</g>
</svg>
